X: 1
T: Blackthorn Stick, The
C: Trad
R: jig
r: 32
M: 6/8
L: 1/8
K: Gmaj
Z: ABC transcription by Verge Roller
 d |: "G" gfg "C" ege | "G" dBG "Em" AGE | "G" DGG "D" FGA | "G" BGB "D" A2 d |
"G" gfg "C" age | "G" dBG "Em" AGE | "G" DGG "D" FGA | "G" BGG G2 d :|
|: d | "G" edd gdd | "G" edd gdd | "G" edd "Em"gfg | "Am" edB "D" A2 d |
"G" gfg "C" age | "G" dBG "Am" AGE | "G" DGG "D" FGA | "G" BGG G2 d :|
